X:273491
T:273491
M:4/4
K:Cmaj
|:C2CDECCE|DCDEFEDC|EGGAcBcA|dcedcBAG|C2CDECCE|D2CDEGG2|AcdcAGEG|1ABcAGEE2:||2AcBAG2GB|:cdedc2Ac|AGABcBcA|GEcEDEDF|EFDCE2AB|cdedcBAB|ABcAGAcd|e2dcdBAB|1GcEDC2zB:||2GCEDCB,A,B,|

